assets/logo.svg

<svg width="177" height="99" viewBox="0 0 177 99" fill="none" xmlns="http://www.w3.org/2000/svg">
<g id="Plugin icon - 1" clip-path="url(#clip0)">
<rect width="177" height="99" fill="black"/>
<g id="Group 1">
<path  id="s" d="M62.7109 38.7287C62.7109 40.2261 62.112 41.4839 60.9141 42.5021C59.776 43.4604 58.3685 43.9396 56.6914 43.9396H18.6875C17.9089 43.9396 17.2799 44.0893 16.8008 44.3888C16.3216 44.6883 15.9622 45.0177 15.7227 45.3771C15.4831 45.6766 15.3633 45.9461 15.3633 46.1857C15.3633 46.4852 15.4831 46.8146 15.7227 47.174C15.9622 47.4735 16.3216 47.7729 16.8008 48.0724C17.2799 48.312 17.9089 48.4617 18.6875 48.5216H48.0664C51.8398 48.5815 54.9544 49.3302 57.4102 50.7677C59.8659 52.1453 61.6029 53.7925 62.6211 55.7091C63.6992 57.5659 64.2383 59.4526 64.2383 61.3693C64.2383 63.2261 63.6992 65.1128 62.6211 67.0294C61.543 68.8862 59.776 70.5334 57.3203 71.9709C54.9245 73.3485 51.8398 74.0373 48.0664 74.0373C47.4076 74.0972 46.9284 74.1271 46.6289 74.1271H11.7695C10.0924 74.1271 8.65495 73.6479 7.45703 72.6896C6.31901 71.6714 5.75 70.4435 5.75 69.006C5.75 67.5086 6.34896 66.2508 7.54688 65.2326C8.6849 64.2742 10.0924 63.7951 11.7695 63.7951H48.7852C49.6836 63.855 50.4023 63.7352 50.9414 63.4357C51.5404 63.1362 51.9896 62.8068 52.2891 62.4474C52.5885 62.088 52.7383 61.7287 52.7383 61.3693C52.7383 61.1896 52.5885 60.8901 52.2891 60.4709C51.9896 59.9917 51.5404 59.6323 50.9414 59.3927C50.4023 59.0933 49.6836 58.9136 48.7852 58.8537H19.3164C15.8424 58.7938 12.9674 58.075 10.6914 56.6974C8.41536 55.2599 6.79818 53.6128 5.83984 51.756C4.88151 49.8992 4.40234 48.0425 4.40234 46.1857C4.40234 44.3289 4.88151 42.5021 5.83984 40.7052C6.85807 38.8485 8.47526 37.2612 10.6914 35.9435C12.9674 34.5659 15.8424 33.8172 19.3164 33.6974C19.9154 33.6375 20.3646 33.6076 20.6641 33.6076H56.6914C58.3685 33.6076 59.776 34.1167 60.9141 35.1349C62.112 36.0933 62.7109 37.2912 62.7109 38.7287Z" fill="white"/>
<path id="i" d="M68.8594 32.6193C70.4766 32.6792 71.8542 33.2781 72.9922 34.4162C74.1302 35.4943 74.7292 36.8419 74.7891 38.4591V69.5451C74.4297 73.1388 72.4531 75.0854 68.8594 75.3849C67.1823 75.3849 65.7148 74.8459 64.457 73.7677C63.2591 72.6297 62.6602 71.2222 62.6602 69.5451V38.4591C62.7201 36.7821 63.349 35.4044 64.5469 34.3263C65.7448 33.1883 67.1823 32.6193 68.8594 32.6193ZM61.3125 20.9396C61.3125 19.2625 62.0312 17.825 63.4688 16.6271C64.9062 15.4292 66.6432 14.8302 68.6797 14.8302C70.7161 14.8302 72.4531 15.4292 73.8906 16.6271C75.3281 17.825 76.0469 19.2625 76.0469 20.9396C76.0469 22.6766 75.3281 24.144 73.8906 25.3419C72.4531 26.5399 70.7161 27.1388 68.6797 27.1388C66.6432 27.1388 64.9062 26.5399 63.4688 25.3419C62.0312 24.144 61.3125 22.6766 61.3125 20.9396Z" fill="white"/>
<path id="u" d="M91.3203 89.8882C88.2057 89.8882 85.1211 89.5288 82.0664 88.8101C79.0716 88.0913 76.1966 87.0431 73.4414 85.6655C70.6862 84.228 68.2604 82.3413 66.1641 80.0054C64.0677 77.6694 62.9297 74.8843 62.75 71.6499V67.8765V52.5132C62.75 50.8361 63.349 49.4585 64.5469 48.3804C65.8047 47.2424 67.2721 46.6733 68.9492 46.6733C72.543 46.9728 74.4896 48.9194 74.7891 52.5132V56.4663V68.8647C74.9089 70.7215 75.5977 72.2788 76.8555 73.5366C78.1732 74.7345 79.6107 75.6929 81.168 76.4116C82.7852 77.1304 84.4323 77.6694 86.1094 78.0288C87.8464 78.3882 89.5833 78.5679 91.3203 78.5679C93.0573 78.5679 94.7643 78.3882 96.4414 78.0288C98.1784 77.6694 99.8255 77.1304 101.383 76.4116C103 75.6929 104.438 74.7345 105.695 73.5366C107.013 72.2788 107.732 70.7215 107.852 68.8647V56.4663V52.5132C107.852 50.8361 108.451 49.4585 109.648 48.3804C110.906 47.2424 112.374 46.6733 114.051 46.6733C117.645 46.9728 119.621 48.9194 119.98 52.5132V67.8765V71.6499C119.801 74.8843 118.633 77.6694 116.477 80.0054C114.38 82.3413 111.954 84.228 109.199 85.6655C106.444 87.0431 103.539 88.0913 100.484 88.8101C97.4896 89.5288 94.4349 89.8882 91.3203 89.8882Z" fill="white"/>
<path id="m" d="M126.707 25.6836C128.803 25.6836 130.84 26.043 132.816 26.7617C134.853 27.4805 136.799 28.5286 138.656 29.9062C138.956 30.2057 139.285 30.5052 139.645 30.8047C139.944 30.5052 140.273 30.2057 140.633 29.9062C142.49 28.5286 144.406 27.4805 146.383 26.7617C148.419 26.043 150.456 25.6836 152.492 25.6836C154.589 25.6836 156.625 26.043 158.602 26.7617C160.638 27.4805 162.555 28.5586 164.352 29.9961C166.208 31.3737 167.826 33.2305 169.203 35.5664C170.641 37.9023 171.359 40.6875 171.359 43.9219V63.0586C171 66.6523 169.023 68.599 165.43 68.8984C163.753 68.8984 162.285 68.3594 161.027 67.2812C159.829 66.1432 159.23 64.7357 159.23 63.0586V44.6406C159.23 43.2031 158.961 42.0052 158.422 41.0469C157.883 40.0286 157.284 39.25 156.625 38.7109C155.966 38.112 155.277 37.6927 154.559 37.4531C153.84 37.1536 153.121 37.0039 152.402 37.0039C151.684 37.0039 150.965 37.1536 150.246 37.4531C149.587 37.6927 148.928 38.112 148.27 38.7109C147.611 39.25 147.012 40.0286 146.473 41.0469C145.934 42.0052 145.634 43.2031 145.574 44.6406V63.0586C145.215 66.6523 143.238 68.599 139.645 68.8984C137.967 68.8984 136.5 68.3594 135.242 67.2812C134.044 66.1432 133.445 64.7357 133.445 63.0586V44.6406C133.445 43.2031 133.176 42.0052 132.637 41.0469C132.098 40.0286 131.499 39.25 130.84 38.7109C130.181 38.112 129.492 37.6927 128.773 37.4531C128.055 37.1536 127.336 37.0039 126.617 37.0039C125.898 37.0039 125.18 37.1536 124.461 37.4531C123.802 37.6927 123.143 38.112 122.484 38.7109C121.826 39.25 121.227 40.0286 120.688 41.0469C120.148 42.0052 119.849 43.2031 119.789 44.6406V63.0586C119.49 66.6523 117.543 68.599 113.949 68.8984C112.272 68.8984 110.805 68.3594 109.547 67.2812C108.349 66.1432 107.75 64.7357 107.75 63.0586V43.9219C107.87 40.6875 108.618 37.9023 109.996 35.5664C111.374 33.2305 112.991 31.3737 114.848 29.9961C116.704 28.5586 118.621 27.4805 120.598 26.7617C122.634 26.043 124.671 25.6836 126.707 25.6836Z" fill="white"/>
</g>
</g>
<defs>
<clipPath id="clip0">
<rect width="177" height="99" fill="white"/>
</clipPath>
</defs>
</svg>

<svg xmlns="http://www.w3.org/2000/svg" width="177" height="99" fill="none" xmlns:v="https://vecta.io/nano"><g clip-path="url(#A)"><path fill="#000" d="M0 0h177v99H0z"/><g fill="#fff"><path d="M62.711 38.729c0 1.497-.599 2.755-1.797 3.773-1.138.958-2.546 1.438-4.223 1.438H18.688c-.779 0-1.408.15-1.887.449s-.839.629-1.078.988c-.24.3-.359.569-.359.809 0 .3.12.629.359.988.239.3.599.599 1.078.898.479.24 1.108.389 1.887.449h29.379c3.773.06 6.888.809 9.344 2.246 2.456 1.378 4.193 3.025 5.211 4.941 1.078 1.857 1.617 3.743 1.617 5.66 0 1.857-.539 3.743-1.617 5.66-1.078 1.857-2.845 3.504-5.301 4.942-2.396 1.378-5.481 2.066-9.254 2.066l-1.437.09H11.77c-1.677 0-3.115-.479-4.312-1.437-1.138-1.018-1.707-2.246-1.707-3.684 0-1.497.599-2.755 1.797-3.773 1.138-.958 2.546-1.438 4.223-1.438h37.016c.898.06 1.617-.06 2.156-.359.599-.299 1.048-.629 1.348-.988s.449-.719.449-1.078c0-.18-.15-.479-.449-.898-.299-.479-.749-.839-1.348-1.078-.539-.299-1.258-.479-2.156-.539H19.316c-3.474-.06-6.349-.779-8.625-2.156-2.276-1.437-3.893-3.085-4.852-4.941s-1.437-3.714-1.437-5.57.479-3.684 1.438-5.48c1.018-1.857 2.635-3.444 4.852-4.762 2.276-1.378 5.151-2.126 8.625-2.246l1.348-.09h36.027c1.677 0 3.085.509 4.223 1.527 1.198.958 1.797 2.156 1.797 3.594z"/><path d="M68.859 32.619c1.617.06 2.995.659 4.133 1.797 1.138 1.078 1.737 2.426 1.797 4.043v31.086c-.359 3.594-2.336 5.54-5.93 5.84-1.677 0-3.145-.539-4.402-1.617-1.198-1.138-1.797-2.546-1.797-4.223V38.459c.06-1.677.689-3.055 1.887-4.133 1.198-1.138 2.635-1.707 4.313-1.707zm-7.547-11.68c0-1.677.719-3.115 2.156-4.312s3.174-1.797 5.211-1.797 3.773.599 5.211 1.797 2.156 2.635 2.156 4.313c0 1.737-.719 3.204-2.156 4.402s-3.175 1.797-5.211 1.797-3.773-.599-5.211-1.797-2.156-2.665-2.156-4.402z"/><path d="M91.32 89.888c-3.115 0-6.199-.359-9.254-1.078-2.995-.719-5.87-1.767-8.625-3.145-2.755-1.437-5.181-3.324-7.277-5.66s-3.234-5.121-3.414-8.355v-3.773-15.363c0-1.677.599-3.055 1.797-4.133 1.258-1.138 2.725-1.707 4.402-1.707 3.594.3 5.54 2.246 5.84 5.84v3.953 12.398c.12 1.857.809 3.414 2.066 4.672 1.318 1.198 2.755 2.156 4.313 2.875 1.617.719 3.264 1.258 4.941 1.617 1.737.359 3.474.539 5.211.539a24.37 24.37 0 0 0 5.121-.539 22.75 22.75 0 0 0 4.942-1.617c1.617-.719 3.055-1.677 4.312-2.875 1.318-1.258 2.037-2.815 2.157-4.672V56.466v-3.953c0-1.677.599-3.055 1.796-4.133 1.258-1.138 2.726-1.707 4.403-1.707 3.594.3 5.57 2.246 5.929 5.84v15.363 3.773c-.179 3.234-1.347 6.019-3.503 8.355-2.097 2.336-4.523 4.223-7.278 5.66a39.79 39.79 0 0 1-8.715 3.145c-2.994.719-6.049 1.078-9.164 1.078z"/><path d="M126.707 25.684a17.74 17.74 0 0 1 6.109 1.078c2.037.719 3.983 1.767 5.84 3.144l.989.899.988-.899c1.857-1.378 3.773-2.426 5.75-3.144 2.036-.719 4.073-1.078 6.109-1.078 2.097 0 4.133.359 6.11 1.078 2.036.719 3.953 1.797 5.75 3.234 1.856 1.378 3.474 3.234 4.851 5.57 1.438 2.336 2.156 5.121 2.156 8.356v19.137c-.359 3.594-2.336 5.54-5.929 5.84-1.677 0-3.145-.539-4.403-1.617-1.198-1.138-1.797-2.546-1.797-4.223V44.641c0-1.437-.269-2.635-.808-3.594-.539-1.018-1.138-1.797-1.797-2.336-.659-.599-1.348-1.018-2.066-1.258-.719-.3-1.438-.449-2.157-.449a5.57 5.57 0 0 0-2.156.449c-.659.24-1.318.659-1.976 1.258-.659.539-1.258 1.318-1.797 2.336-.539.958-.839 2.156-.899 3.594v18.418c-.359 3.594-2.336 5.54-5.929 5.84-1.678 0-3.145-.539-4.403-1.617-1.198-1.138-1.797-2.546-1.797-4.223V44.641c0-1.437-.269-2.635-.808-3.594-.539-1.018-1.138-1.797-1.797-2.336-.659-.599-1.348-1.018-2.067-1.258-.718-.3-1.437-.449-2.156-.449s-1.437.15-2.156.449c-.659.24-1.318.659-1.977 1.258-.658.539-1.257 1.318-1.796 2.336-.54.958-.839 2.156-.899 3.594v18.418c-.299 3.594-2.246 5.54-5.84 5.84-1.677 0-3.144-.539-4.402-1.617-1.198-1.138-1.797-2.546-1.797-4.223V43.922c.12-3.234.868-6.02 2.246-8.355s2.995-4.193 4.852-5.57c1.856-1.437 3.773-2.516 5.75-3.234 2.036-.719 4.073-1.078 6.109-1.078z"/></g></g><defs><clipPath id="A"><path fill="#fff" d="M0 0h177v99H0z"/></clipPath></defs></svg>
